X:19
T:Way Stormalong, John
M:C|
L:1/4
Q:1/4=90
K:Eb Mix
E|\
AA AE|AA A<c|A2F>D|EE2E|
AA AC/E/|EC A,2|C2 E2|C2 E2|C/E/ E<E||
